svgs/sharp-regular/circle-info.svg

<svg xmlns="http://www.w3.org/2000/svg" viewBox="0 0 512 512"><!--! Font Awesome Pro 6.6.0 by @fontawesome - https://fontawesome.com License - https://fontawesome.com/license (Commercial License) Copyright 2024 Fonticons, Inc. --><path d="M256 48a208 208 0 1 1 0 416 208 208 0 1 1 0-416zm0 464A256 256 0 1 0 256 0a256 256 0 1 0 0 512zM216 336l-24 0 0 48 24 0 80 0 24 0 0-48-24 0-8 0 0-88 0-24-24 0-48 0-24 0 0 48 24 0 24 0 0 64-24 0zm72-144l0-64-64 0 0 64 64 0z"/></svg>

<svg xmlns="http://www.w3.org/2000/svg" viewBox="0 0 512 512"><!--! Font Awesome Pro 6.4.2 by @fontawesome - https://fontawesome.com License - https://fontawesome.com/license (Commercial License) Copyright 2023 Fonticons, Inc. --><path d="M256 48a208 208 0 1 1 0 416 208 208 0 1 1 0-416zm0 464A256 256 0 1 0 256 0a256 256 0 1 0 0 512zM216 336H192v48h24 80 24V336H296h-8V248 224H264 216 192v48h24 24v64H216zm72-144V128H224v64h64z"/></svg>
